X:1
T:The shepherd's Song
T:The shepherd's Song
T:Edward Elgar
T:Barry Pain
C:Edward Elgar
Z:Barry Pain
%%score ( 1 2 ) { ( 3 4 ) | ( 5 6 7 ) }
L:1/8
Q:1/4=85
M:4/4
K:F
V:1 treble nm="Voice"
V:2 treble 
V:3 treble nm="Piano"
V:4 treble 
V:5 bass 
V:6 bass 
V:7 bass 
V:1
"^Allegretto" z8 | z8 |!p! (.c .=B .c .A ._B) d (B/A/) G | A ^G A F =G B G3/2 z/ | %4
w: ||Down the dust- y road to- geth- * er|Home- ward pass the hur- rying sheep,|
"^cresc." F3/2 F/ G A B c"^rit."[Q:1/4=70]"^T" d !breath!d | %5
w: Stu- pid with the sum- mer wea- ther,|
[Q:1/4=85]"_a tempo"[Q:1/4=85]"^a tempo" G3/2 G/ A B c d"^rit."[Q:1/4=75]"^T" !breath!e2 | %6
w: Too much grass and too much sleep,|
!mf![Q:1/4=75]"^allargando" !^!f3/2 A/ A B!>(! c3/2!>)! A/ F z/!p! F/ | %7
w: I, their shep- herd, sing to thee That|
 (F"^rit."[Q:1/4=70]"^T"G!<(! A/) B/ c/!<)! !fermata!f/ G3/2 F/ F2- | %8
w: sum- * * mer is a joy to me.|
[Q:1/4=85]"_a tempo" F2 z2 z4 |!p! (.c .=B .c .A ._B) d (B/A/) G | A ^G A F =G B G z/ E/ | %11
w: _|Down the shore rolled waves all crea- * my|With the flecked surf yes- ter- hight; I|
"^cresc." F3/2 F/ G A B c"^rit."[Q:1/4=75]"^T" d !breath!d | %12
w: swam far out in star- light drea- my,|
[Q:1/4=85]"^a tempo" G G/ G/ A B c d"^rit."[Q:1/4=75]"^T" !breath!e2 | %13
w: In mo- ving wa- ters cool and bright,|
!mf![Q:1/4=70]"^allargando" !^!f3/2 A/ A B!>(! c3/2!>)! A/ F z/!p! F/ | %14
w: I, the shep- herd, sing to thee: I|
 (F"^rit."G!<(! A/) B/ c/!<)! !fermata!f/ G3/2 F/ F2- | F2 z2 z4 | z8 | %17
w: love _ _ the strong life of the sea.|_||
!p! A3/2 ^G/ A F!<(! =G B!<)! d !breath!^c | d3/2 d/ =c c!p! (=B c2) A | G4 z!p! G2 G | %20
w: And up- on the hill- side grow- ing|Where the fat sheep dozed * in|shade, Bright red|
"^cresc." ^G G!<(! A3/2!<)! e/!>(! (e3 d)!>)! | c3 z z c2 c | ^c3/2 c/ d3/2 A/ (A4 | %23
w: pop- pies I found blow- *|ing, Drow- sy,|tall and loose- ly made,|
 A3) z z!f!!<(! !^!f2!<)! f | a f c3/2 A/!>(! (A2!>)! G2) | %25
w: _ I, the|shep- herd, sing to thee _|
 z[Q:1/4=60]"^largamente" f c3/2 A/!<(! A!<)![Q:1/4=50]"^T""^dim." G d3/2 c/ | %26
w: How fair the bright red pop- pies|
[Q:1/4=85]"_a tempo"[Q:1/4=85]"^a tempo" c8- | c4 z4 |!pp! c3/2 B/ c A _B d (B/A/) G | %29
w: be.|_|To the red- tiled home- stead ben- * ding|
 A3/2 ^G/ !breath!A F =G B G3/2 z/ |"^cresc." F3/2 F/ G A B c"^rit."[Q:1/4=75]"^T" d !breath!d | %31
w: Winds the road, so white and long|Day and work are near their end- ing|
[Q:1/4=85]"^a tempo""^cresc." G3/2 G/ A B c d"^rit."[Q:1/4=75]"^T"!<(! e2!<)! | %32
w: Sleep and dreams will end my song,|
[Q:1/4=75]"^allargando" !^!f3/2 A/ A B c3/2!>(! A/!>)! !breath!F2 | %33
w: I, the shep- herd, sing to thee;|
[Q:1/4=70]"^T" (F"^poco rit."G!<(! A/) B/ c/!<)! f/!f!"^lento"[Q:1/4=60]"^T" (ag/) !breath!f/ (!>!e/d/c/) B/ | %34
w: In _ _ the dream- time an- * swer, an- * * swer|
[Q:1/4=85]"_a tempo" A4-"^rit."[Q:1/4=90]"^T" A2 z2 | %35
w: me, _|
!pp!"^molto rit."[Q:1/4=60]"^T" c3/2 c/!<(! c!<)! c c !breath!B (B/A/) G | F8- | %37
w: In the dream- time an- swer, an- * swer|me.|
 F2 z2 !fermata!z4 |] %38
w: _|
V:2
 x8 | x8 | x8 | x8 | x8 | x8 | x8 | x8 | x8 | x8 | x8 | x8 | x8 | x8 | x8 | x8 | x8 | x8 | x8 | %19
 x8 | x8 | x8 | x8 | x8 | f c A3/2 F/ x4 | x8 | x8 | x8 | x8 | x8 | x8 | x8 | x8 | x8 | x8 | x8 | %36
 x8 | x8 |] %38
V:3
 (c =B c A _B d B/A/ G) | (A ^G A F =G B G/F/ E) | (c =B c A _B d B G | A ^G A F =G B G E) | %4
"_cresc." (F2 GA Bc"_rit." d2) | (G2 AB c[B-d]"_rit." e2) | %6
 [FAf] D/F/ z/ B,/D/G/ z/ B,/C/E/ z/[I:staff +1] (F,/A,/D/ | %7
"_colla voce"[I:staff -1] FG [FA]/[GB]/[Fc]/) !fermata!z/ !fermata![B,EG]2 F2 | %8
 (c =B c A _B .g B/A/ G) | .c .=B .c .A ._B d B G | (A ^G A F =G B G E) | %11
"_cresc." (F2 GA Bc"_rit." d2) | (G2 AB c[Bd]"_rit." e2) | %13
 [FAf] D/F/ z/ B,/D/G/ z/ (B,/C/E/) z/[I:staff +1] (F,/A,/D/ | %14
"_colla voce"[I:staff -1] FG [FA]/[GB]/[Fc]/) !fermata!z/ !fermata![B,EG]2 F2 | %15
"_cresc." c =B c _e d .a c/_B/ A | (B A B _d c .g B/A/G) | (A^GAF =GBd^c) | (d2 =c2 =B c2 A) | %19
 D^CD=B, .[=CE]/.[CE]/.[CEG]/.[CEG]/ .[CEG]/.[CEG]/.[CEG]/.[CEG]/ | %20
"_cresc." [CE^G]/[CEG]/[CEG]/[CEG]/ A/A/A/[Ae]/ [Ae]/[Ae]/[Ae]/[Ae]/ [Ge]/[Ge]/[Gd]/[Gd]/ | %21
 (c=BcB [FA]/)[FA]/[FAc]/[FAc]/!<(! [FAc]/[FAc]/[FAc]/[FAc]/!<)! | %22
 ^c/c/c/c/ d/d/d/"_cresc."[da]/ [ca]/[ca]/[ca]/[ca]/ [ca]/[ca]/[ca]/[ca]/ | %23
 (fef_e [Dd])!<(! [Fdf]/[Fdf]/ [Fdf]/[Fdf]/[Gdg]/[Gdg]/!<)! | %24
 [Afa] [CFA]/[CFA]/ [CFA]/[CFA]/[CFA]/[CFA]/ [DFA]/[DFA]/ !^![Fdf]!^![Gdg]!^![^Gd^g] | %25
"_colla voce" !^![Afa][FAf] [Ac] [CFA] (A"_dim."G) (d>c) | (c =B c A _B .g B/A/G | %27
 A ^G A F"_dim." =G B G/F/ E) | (c =B c A _B d B G | A ^G A F =G B G E) | %30
 (F/!<(!f!<)!e!>(!d!>)!c/) B[Ac]"_rit." d2 | G2 AB c/c'b/"_rit." a/g/c'/e/ | %32
 [Af] D/F/ z/ B,/D/G/ z/ (B,/C/E/) z/[I:staff +1] F,/A,/D/ | %33
"_colla voce"[I:staff -1] FG [FA]/[GB]/[Fc]/[Ff]/!f! [=A=a]"_lento"g/f/ e/d/c/B/ | %34
 A4-!<(! A!<)!d (f/e/d) |!pp!"_colla voce" [CFc][=B,F=B][CFc][A,_EA] [_B,D_B][DBd][^DB^d][EGe] | %36
 (f =B c A _B!<(! d!<)! (3f!>(!e!>)!d | c) z !arpeggio![CFA]2 z z !fermata!z2 |] %38
V:4
 c/C/=B/C/ c/C/A/C/ _B/C/d/C/ B/A/G/C/ | A/C/^G/C/ A/C/F/C/ =G/C/B/C/ G/F/E/C/ | %2
 c/C/=B/C/ c/C/A/C/ _B/C/d/C/ B/C/G/C/ | A/C/^G/C/ A/C/F/C/ =G/C/B/C/ G/C/E/C/ | %4
 FE DC B,A G/F/B/A/ | GF ED C/F/E/D/ B/G/c/B/ |[I:staff +1] F,/A,/ x7 | %7
[I:staff -1] z/ (D/-[DF-]/[C-E]/ [CE]/[B,D]/[A,C]/) x5/2 (A,/C/F/A/) | %8
 c/C/=B/C/ c/C/A/C/ _B/C/g/C/ B/A/G/C/ | c/C/=B/C/ c/C/A/C/ _B/C/d/C/ B/C/G/C/ | %10
 A/C/^G/C/ A/C/F/C/ =G/C/B/C/ G/C/E/C/ | FE DC B,A G/F/B/A/ | GF ED C/F/E/D/ B/G/c/B/ | %13
[I:staff +1] F,/A,/ x7 | x6[I:staff -1] (A,/C/F/A/ | c/C/=B/C/ c/C/_e/C/d/C/ac/_B/A/C/) | %16
 B/C/A/C/ B/C/_d/C/c/C/gB/A/G/C/ | A/A,/^G/A,/ A/A,/F/A,/ x4 | x8 | G3 F x4 | x8 | A x7 | %22
 [FA]/[FA]/[FA]/[FA]/ [FA]/[FA]/[FA]/[FA]/ [EA]/[EA]/[EA]/[EA]/ [A,EA]/[A,EA]/[A,EA]/[A,EA]/ | %23
 F/A/E/A/ F/A/_E/A/ x4 | x8 | x4 [DF]2 [EG]2 | c/C/=B/C/ c/C/A/C/_B/C/gB/A/G/C/ | %27
 A/C/^G/C/ A/C/F/C/ =G/C/B/C/ G/F/E/C/ | c/C/=B/C/ c/C/A/C/ _B/C/d/C/ B/C/G/C/ | %29
 A/C/^G/C/ A/C/F/C/ =G/C/B/C/ G/C/E/C/ | F4 x2 G/F/B/A/ | G/gfed/ cde>B |[I:staff +1] F,/A,/ x7 | %33
[I:staff -1] z/ D/-[DF]/[CE]/- [CE]/[B,D]/[I:staff +1][A,C]/[_A,=B,D]/ FE/D/ !>!C/!>!_B,/!>!E,/!>!D/ | %34
[I:staff -1] E^DE^C F[FA] [F_A]2 | x8 | c/F/=B/F/ c/F/A/F/ _B/F/d/F/- F2 | F x7 |] %38
V:5
!pp!"_con"!ped! A,,/C,/^G,,/C,/ A,,/C,/F,,/C,/ =G,,/C,/B,,/C,/ G,,/C,/E,,/C,/!ped-up! | %1
 F,,/C,/E,,/C,/ F,,/C,/D,,/C,/ E,,/C,/G,,/C,/ B,,/C,/G,,/C,/ | %2
 A,,/C,/^G,,/C,/ A,,/C,/F,,/C,/ =G,,/C,/B,,/C,/ G,,/C,/E,,/C,/ | %3
 F,,/C,/E,,/C,/ F,,/C,/D,,/C,/ E,,/C,/G,,/C,/ E,,/C,/C,,/C,/ | %4
 (D,/F,/C,/F,/ B,,/F,/A,,/F,/) G,,/ (!^!DC/ B,/A,/G,/F,/) | %5
 (E,/G,/D,/G,/ C,/G,/B,,/G,/) A,,G,, C/B,/A,/G,/ | %6
!mf!!ped! D,2!ped-up!!ped! G,,2!ped-up!!>(! (([C,,C,]2 [D,,D,])) z!>)! | x4 x4 | %8
 (A,,/C,/^G,,/C,/ A,,/C,/F,,/C,/ G,,/C,/C,,/C,/ D,,/C,/E,,/C,/) | %9
 (A,,/C,/^G,,/C,/ A,,/C,/F,,/C,/ =G,,/C,/B,,/C,/ G,,/C,/E,,/C,/) | %10
 (F,,/C,/E,,/C,/ F,,/C,/D,,/C,/ E,,/C,/G,,/C,/ E,,/C,/C,,/C,/) | %11
 (D,/F,/C,/F,/ B,,/F,/A,,/F,/ G,,/) (!^!DC/ B,/A,/G,/F,/) | %12
 (E,/G,/D,/G,/ C,/G,/B,,/G,/)!<(! A,,G,,{/C,} C/B,/A,/G,/!<)! | %13
!mf!!ped! D,2!ped-up!!ped! G,,2!ped-up!!>(! (([C,,C,]2 [D,,D,])) z!>)! | %14
 z/ (D/-[DF]/[CE]/- [CE]/[B,D]/[A,C]/) !fermata!z/ !fermata!C,2 F, z | %15
 (A,,/C,/^G,,/C,/ A,,/C,/=G,,/C,/ ^F,,/C,/^E,,/C,/ F,,/C,/D,,/C,/) | %16
 (G,,/C,/^F,,/C,/ G,,/C,/=F,,/C,/ E,,/C,/^D,,/C,/ E,,/"^dim."C,/C,,/C,/) |!p! (F,E,F,D, E,G,F,E,) | %18
 D,/A,/[I:staff -1]F/[I:staff +1]A,/ D,/A,/[I:staff -1]F/[I:staff +1]A,/ D,/A,/[I:staff -1]F/[I:staff +1]A,/ C,/F,/[I:staff -1]F/[I:staff +1]F,/ | %19
 =B,,/G,/^A,,/G,/ B,,/G,/G,,/G,/ =C, z z2 | %20
 z2 [CE]/[CE]/[CE]/[CE]/ [=B,E]/[B,E]/[B,E]/[B,E]/ [B,E]/[B,E]/[B,E]/[B,E]/ | %21
 A,/E/^G,/E/ A,/E/=G,/E/ F, z z2 | x8 | D/A,/^C/A,/ D/A,/=C/A,/!f! [=B,,=B,]4 | %24
!ped! (([C,,C,]4!ped-up! [=B,,,=B,,])) [=B,D]/[B,D]/ [B,D]/[B,D]/[B,D]/[B,D]/ | %25
 C/C/C/C/ C [C,,C,] [=B,,,=B,,]2 [_B,,,_B,,]2 | %26
!p! A,,/C,/^G,,/C,/ A,,/C,/^F,,/C,/ =G,,/C,/C,,/C,/ D,,/C,/E,,/C,/ | %27
 F,,/C,/E,,/C,/ F,,/C,/D,,/C,/ E,,/C,/^D,,/C,/ E,,/C,/B,,/C,/ | %28
 (A,,/C,/^G,,/C,/ A,,/C,/F,,/C,/ =G,,/C,/B,,/C,/ G,,/C,/E,,/C,/ | %29
 =F,,/C,/E,,/C,/ F,,/C,/D,,/C,/ E,,/C,/^D,,/C,/ E,,/C,/C,,/C,/) | %30
 (D,/F,/C,/F,/ B,,/F,/A,,/F,/) G,,/ (!^!DC/ B,/A,/G,/F,/) | %31
 (E,/G,/D,/G,/ C,/G,/B,,/G,/) A,,G,, (C/B,/A,/G,/) | %32
!mf!!ped! D,2!ped-up!!ped! G,,2!ped-up!!>(! (([C,,C,]2 [D,,D,])) z!>)! | %33
 x4!ped! [G,B,]2!ped-up! C, z |!p! ^C,/A,/^B,,/A,/ C,/A,/A,,/A,/ D,/A,/=C,/A,/ _A,2 | %35
 =A,/C,/^G,/C,/ A,/C,/^F,/C,/ G,/C,/B,/C,/ C/C,/B,/C,/ | %36
!ppp! =A,/F,/^G,/F,/ A,/F,/E,/F,/ D,/F,/B,,/-F,/!ped! (3DCB,!ped-up! | %37
!ped! A, z !arpeggio!F,2 F,!ped-up! z !fermata!z2 |] %38
V:6
 (A,, ^G,, A,, F,, =G,, B,, G,, E,,) | (F,, E,, F,, D,, E,, G,, B,, G,,) | %2
 (A,, ^G,, A,, F,, =G,, B,, G,, E,, | F,, E,, F,, D,, E,, G,, E,, C,,) | D, C, B,, A,, x4 | %5
 E, D, C, B,, x4 | x8 | x8 | A,, ^G,, A,, F,, G,, C,, D,, E,, | A,, ^G,, A,, F,, =G,, B,, G,, E,, | %10
 F,, E,, F,, D,, E,, G,, E,, C,, | D, C, B,, A,, x4 | E, D, C, B,, x4 | x8 | x8 | %15
 A,, ^G,, A,, =G,, ^F,, ^E,, F,, D,, | G,, ^F,, G,, =F,, E,, ^D,, E,, C,, | %17
 x4 E,/A,/G,/A,/ F,/A,/E,/A,/ | D,2 D,2 D,2 C,2 | =B,, ^A,, B,, G,, x4 | x8 | A, ^G, A, =G, x4 | %22
 x8 | D,^C,D,=C, x4 | x8 | F x7 | A,, ^G,, A,, ^F,, =G,, C,, D,, E,, | %27
 F,, E,, F,, D,, E,, ^D,, E,, B,, | A,, ^G,, A,, F,, =G,, B,, G,, E,, | %29
 F,, E,, F,, D,, E,, ^D,, E,, C,, | D, C, B,, A,, x4 | E, D, C, B,, z2 C,2 | x8 | x8 | %34
 ^C, ^B,, C, A,, D, =C, =B,,2 | A, ^G, A, ^F, G, B, C B, | A, ^G, A, E, D, B,, B,,2 | %37
 F, x3 [F,,,F,,] x3 |] %38
V:7
 x8 | x8 | x8 | x8 | x8 | x8 | x8 | %7
 x7/2[I:staff -1] !fermata!z/[I:staff +1] !fermata!C,2 F,[I:staff -1] z | x8 | x8 | x8 | x8 | x8 | %13
 x8 | x8 | x8 | x8 | x8 | x8 | x8 | x8 | x8 | x8 | x8 | x8 | x8 | x8 | x8 | x8 | x8 | x8 | x8 | %32
 x8 | x8 | x8 | x8 | x8 | x8 |] %38

